public/footer/mail.svg

<svg width="32" height="32" viewBox="0 0 32 32" fill="none" xmlns="http://www.w3.org/2000/svg">
<path d="M22.0984 9.44043H9.89675C8.68273 9.44043 7.69922 10.4291 7.69922 11.638V20.3564C7.69922 21.5704 8.68785 22.5539 9.89675 22.5539H22.0984C23.3125 22.5539 24.296 21.5653 24.296 20.3564V11.638C24.296 10.4239 23.3073 9.44043 22.0984 9.44043ZM21.3659 10.9772L15.9976 15.0393L10.5627 10.9772H21.3659ZM22.0984 21.0172H9.89675C9.53306 21.0172 9.23596 20.7201 9.23596 20.3564V11.9043L15.5366 16.6119C15.6749 16.7143 15.8337 16.7655 15.9976 16.7655C16.1615 16.7655 16.3254 16.7143 16.4586 16.6119L22.7592 11.848V20.3564C22.7592 20.7201 22.4621 21.0172 22.0984 21.0172Z" fill="#979797"/>
</svg>

<svg width="32" height="32" fill="none" xmlns="http://www.w3.org/2000/svg"><path d="M22.098 9.44H9.897a2.2 2.2 0 0 0-2.198 2.198v8.718a2.2 2.2 0 0 0 2.198 2.198h12.201a2.2 2.2 0 0 0 2.198-2.198v-8.718a2.2 2.2 0 0 0-2.198-2.198zm-.732 1.537-5.368 4.062-5.435-4.062h10.803zm.732 10.04H9.897a.662.662 0 0 1-.661-.66v-8.453l6.3 4.708a.767.767 0 0 0 .923 0l6.3-4.764v8.508c0 .364-.297.661-.66.661z" fill="#979797"/></svg>
